resources/svg/folders.svg

<svg width="15" height="15" viewBox="0 0 15 15" fill="none" xmlns="http://www.w3.org/2000/svg">
<path d="M4.5 0C3.67157 0 3 0.671573 3 1.5V8.5C3 9.32843 3.67157 10 4.5 10H13.5C14.3284 10 15 9.32843 15 8.5V3.5C15 2.67157 14.3284 2 13.5 2H9.70711L7.70711 0H4.5Z" fill="black"/>
<path d="M12 11H4.5C3.11929 11 2 9.88071 2 8.5V5H1.5C0.671573 5 0 5.67157 0 6.5V13.5C0 14.3284 0.671573 15 1.5 15H10.5C11.3284 15 12 14.3284 12 13.5V11Z" fill="black"/>
</svg>

<svg viewBox="0 0 15 15" fill="none" xmlns="http://www.w3.org/2000/svg" fill="currentColor"><path d="M4.5 0A1.5 1.5 0 003 1.5v7A1.5 1.5 0 004.5 10h9A1.5 1.5 0 0015 8.5v-5A1.5 1.5 0 0013.5 2H9.707l-2-2H4.5z" fill="currentColor"/><path d="M12 11H4.5A2.5 2.5 0 012 8.5V5h-.5A1.5 1.5 0 000 6.5v7A1.5 1.5 0 001.5 15h9a1.5 1.5 0 001.5-1.5V11z" fill="currentColor"/></svg>
